X: 31808
T: Patsy Geary's
R: slide
M: 12/8
K: Dmajor
B|:A3 AFA BdB A2G|F2A d2e f3 fef|
g2a/g/ f2g/f/ efe d2B|1 ABA AFD E3 EFG:|2 ABA f2e (d3 d2)e||
|:f2e f2e f2e fga|A2A BAF A3 ABd|
e3 ede fef dfa|1 baf afe (d3 d2)e:|2 baf afe (d3 d2):|

